X:1
T:Old Keg of Rum
M:6/8
L:1/4
K:F
 C/2| F F/2 A F/2| G- F/2 D F/2| G G/2 F E/2| F3/2- F F/4G/4| A A/2 A A/2|\
 A- A/2 A A/2| A G/2 G F/2| G3/2- GF/4-A/4| B B/2 B B/2| B A/2 G A/2|\
 B A/2 B c/2| d3/2- d B/4c/4| d d/2 d d/2| d c/2 B A/2| G3/2 F G/2|\
 F3/2- F||
